svg/bicycle-11.svg

<?xml version="1.0" encoding="utf-8"?>
<!-- Generator: Adobe Illustrator 19.2.1, SVG Export Plug-In . SVG Version: 6.00 Build 0)  -->
<!DOCTYPE svg PUBLIC "-//W3C//DTD SVG 1.1//EN" "http://www.w3.org/Graphics/SVG/1.1/DTD/svg11.dtd">
<svg version="1.1"
	 id="svg4764" inkscape:version="0.91 r13725" sodipodi:docname="bicycle-11.svg" xmlns:cc="http://creativecommons.org/ns#" xmlns:dc="http://purl.org/dc/elements/1.1/" xmlns:inkscape="http://www.inkscape.org/namespaces/inkscape" xmlns:rdf="http://www.w3.org/1999/02/22-rdf-syntax-ns#" xmlns:sodipodi="http://sodipodi.sourceforge.net/DTD/sodipodi-0.dtd" xmlns:svg="http://www.w3.org/2000/svg"
	 xmlns="http://www.w3.org/2000/svg" xmlns:xlink="http://www.w3.org/1999/xlink" x="0px" y="0px" width="11px" height="11px"
	 viewBox="0 0 11 11" style="enable-background:new 0 0 11 11;" xml:space="preserve">
<path id="path4804" inkscape:connector-curvature="0" sodipodi:nodetypes="ccccccccccccsssscccssscccccssssscccsssc" style="fill:#010101;" d="
	M6.5,1.5c-0.6761-0.01-0.6761,1.0096,0,1H7V3.211L4.252,4.7813L3.7383,3.5h0.7148c0.6761,0.01,0.6761-1.0096,0-1H2.4258
	c-0.6761-0.01-0.6761,1.0096,0,1h0.2344l0.4316,1.0781C2.9011,4.5311,2.7047,4.5001,2.5,4.5001c-1.3748,0-2.5,1.1252-2.5,2.5
	s1.1252,2.5,2.5,2.5S5,8.3748,5,7.0001c0-0.4713-0.1399-0.9078-0.3691-1.2852l2.4707-1.4121L7.5039,4.711
	C6.6216,5.0981,6,5.9792,6,7.0001c0,1.3748,1.1252,2.5,2.5,2.5s2.5-1.1252,2.5-2.5c0-1.2959-1.0034-2.3575-2.2695-2.4766L8,3.793V2
	c0-0.2761-0.2239-0.5-0.5-0.5H6.5z M2.5,5.5C3.3344,5.5,4,6.1657,4,7S3.3344,8.5,2.5,8.5S1,7.8344,1,7S1.6656,5.5,2.5,5.5z
	 M8.4551,5.504h0.002c0.0299,0.003,0.06,0.003,0.0898,0C9.3587,5.5289,10,6.1818,10,7.0001c0,0.8344-0.6656,1.5-1.5,1.5
	S7,7.8345,7,7.0001C7,6.1811,7.6424,5.5279,8.4551,5.504L8.4551,5.504z"/>
</svg>

<svg xmlns="http://www.w3.org/2000/svg" width="11" height="11">
    <path d="M6.5 1.5c-.676-.01-.676 1.01 0 1H7v.711l-2.748 1.57L3.738 3.5h.715c.676.01.676-1.01 0-1H2.426c-.676-.01-.676 1.01 0 1h.234l.432 1.078A2.461 2.461 0 0 0 2.5 4.5C1.125 4.5 0 5.625 0 7s1.125 2.5 2.5 2.5S5 8.375 5 7c0-.471-.14-.908-.37-1.285l2.472-1.412.402.408A2.507 2.507 0 0 0 6 7.001c0 1.374 1.125 2.5 2.5 2.5S11 8.374 11 7c0-1.297-1.003-2.358-2.27-2.478L8 3.794V2a.5.5 0 0 0-.5-.5h-1zm-4 4C3.334 5.5 4 6.166 4 7s-.666 1.5-1.5 1.5S1 7.834 1 7s.666-1.5 1.5-1.5zm5.955.004h.002a.45.45 0 0 0 .09 0A1.49 1.49 0 0 1 10 7c0 .834-.666 1.5-1.5 1.5S7 7.835 7 7a1.49 1.49 0 0 1 1.455-1.496z" />
</svg>
